X: 6854
T: Charlie Mulvihill's
R: reel
M: 4/4
K: Dmajor
dB|A~F3 G2FG|ADFD EGFE|~D2FA dfef|dBAF E(d{e}d)B|
A~F3 G2FG|ADFD E/F/G FE|DE F/G/A dfec|dBAF D2:|:ge|
~f3a g2fg|afdf edBd|~f3e dfec|dBAF E2 fg|
a~f3b~f3|afdf edBd|fgef dfec|dBAF D2:|

